X:2596
T:Polska efter Johan Lundin
S:efter Johan Lundin
B:[[http://www.smus.se/earkiv/fmk/browselarge.php?lang=sw&katalogid=M+6&bildnr=00018|SMUS - katalog M6 bild 18]] nr 83
Z:Nils L
R:Slängpolska
O:Uppland
M:3/4
L:1/16
K:D
A2d2 F2A2 d2c2 | BcBG E2c2 c4 | c2d2 e2f2 g2a2 | bgec d2A2 F2D2 |
A2d2 F2A2 d2c2 | BcBG E2c2 c4 | c2d2 e2f2 g2a2 | bgec c2d2 d4 ::
DFAF DFAF DFAF | G,2B2 B2B2 B4 | Acec Acec Acec |1 A2f2 edcB AGFE :|2
Adfe e4 d4 |]
(:musicend:)
(:music:)
